svg/fluentui-system-icons/ic_fluent_link_12_filled.svg

<svg width="12" height="12" viewBox="0 0 12 12" fill="none" xmlns="http://www.w3.org/2000/svg">
<path d="M1.5 5.2C1.5 3.70883 2.70883 2.5 4.2 2.5H4.25C4.66421 2.5 5 2.83579 5 3.25C5 3.66421 4.66421 4 4.25 4H4.2C3.53726 4 3 4.53726 3 5.2V5.8C3 6.46274 3.53726 7 4.2 7H4.25C4.66421 7 5 7.33579 5 7.75C5 8.16421 4.66421 8.5 4.25 8.5H4.2C2.70883 8.5 1.5 7.29117 1.5 5.8V5.2ZM10.5 5.2C10.5 3.70883 9.29117 2.5 7.8 2.5H7.75C7.33579 2.5 7 2.83579 7 3.25C7 3.66421 7.33579 4 7.75 4H7.8C8.46274 4 9 4.53726 9 5.2V5.8C9 6.46274 8.46274 7 7.8 7H7.75C7.33579 7 7 7.33579 7 7.75C7 8.16421 7.33579 8.5 7.75 8.5H7.8C9.29117 8.5 10.5 7.29117 10.5 5.8V5.2ZM4.75 4.75C4.33579 4.75 4 5.08579 4 5.5C4 5.91421 4.33579 6.25 4.75 6.25H7.25C7.66421 6.25 8 5.91421 8 5.5C8 5.08579 7.66421 4.75 7.25 4.75H4.75Z" fill="#212121"/>
</svg>

<svg xmlns="http://www.w3.org/2000/svg" width="12" height="12"><path d="M1.5 5.2a2.7 2.7 0 0 1 2.7-2.7h.05a.75.75 0 0 1 0 1.5H4.2A1.2 1.2 0 0 0 3 5.2v.6A1.2 1.2 0 0 0 4.2 7h.05a.75.75 0 0 1 0 1.5H4.2a2.7 2.7 0 0 1-2.7-2.7v-.6Zm9 0a2.7 2.7 0 0 0-2.7-2.7h-.05a.75.75 0 0 0 0 1.5h.05A1.2 1.2 0 0 1 9 5.2v.6A1.2 1.2 0 0 1 7.8 7h-.05a.75.75 0 0 0 0 1.5h.05a2.7 2.7 0 0 0 2.7-2.7v-.6Zm-5.75-.45a.75.75 0 0 0 0 1.5h2.5a.75.75 0 0 0 0-1.5h-2.5Z"/></svg>
